packages/bpk-svgs/src/icons/sm/fingerprint.svg

<svg viewBox="0 0 24 24" fill="none" xmlns="http://www.w3.org/2000/svg">
<path d="M10.4377 1.50694C10.674 2.30095 10.2219 3.13618 9.42787 3.37249C5.70918 4.47923 3 7.92518 3 12V14.2502C2.99987 15.0787 2.32819 15.7501 1.49976 15.75C0.671333 15.7499 -0.00013266 15.0782 1.96595e-08 14.2498V12C1.96595e-08 6.56174 3.61635 1.97204 8.57213 0.497131C9.36613 0.260823 10.2014 0.712928 10.4377 1.50694ZM13.5623 1.50694C13.7986 0.712928 14.6339 0.260823 15.4279 0.497131C20.3837 1.97204 24 6.56174 24 12C24 14.8284 23.4774 17.5382 22.5221 20.0358C22.2262 20.8096 21.359 21.197 20.5853 20.901C19.8115 20.6051 19.4241 19.7379 19.7201 18.9641C20.5465 16.8033 21 14.4564 21 12C21 7.92518 18.2908 4.47923 14.5721 3.37249C13.7781 3.13618 13.326 2.30095 13.5623 1.50694ZM12 8.24999C9.92893 8.24999 8.25 9.92893 8.25 12C8.25 14.9968 7.14952 17.7404 5.33262 19.8428C4.79095 20.4696 3.84371 20.5387 3.21691 19.997C2.5901 19.4553 2.52108 18.5081 3.06275 17.8813C4.4266 16.3031 5.25 14.2496 5.25 12C5.25 8.27207 8.27208 5.24999 12 5.24999C15.7279 5.24999 18.75 8.27207 18.75 12C18.75 16.0957 17.6543 19.9401 15.739 23.2511C15.3242 23.9682 14.4066 24.2132 13.6895 23.7984C12.9724 23.3836 12.7274 22.466 13.1422 21.7489C14.8004 18.8822 15.75 15.5543 15.75 12C15.75 9.92893 14.0711 8.24999 12 8.24999ZM12 10.5C12.8284 10.5 13.5 11.1716 13.5 12C13.5 16.0307 12.1157 19.7423 9.79759 22.6793C9.28434 23.3296 8.34111 23.4407 7.69083 22.9274C7.04055 22.4142 6.92946 21.471 7.44271 20.8207C9.35791 18.3941 10.5 15.3325 10.5 12C10.5 11.1716 11.1716 10.5 12 10.5Z" fill="#111236"/>
</svg>

<svg xmlns="http://www.w3.org/2000/svg" viewBox="0 0 24 24"><path d="M10.438 1.507a1.5 1.5 0 0 1-1.01 1.865A9.005 9.005 0 0 0 3 12v2.25a1.5 1.5 0 0 1-3 0V12C0 6.562 3.616 1.972 8.572.497a1.5 1.5 0 0 1 1.866 1.01zm3.124 0a1.5 1.5 0 0 1 1.866-1.01C20.384 1.972 24 6.562 24 12a22.45 22.45 0 0 1-1.478 8.036 1.5 1.5 0 1 1-2.802-1.072A19.452 19.452 0 0 0 21 12c0-4.075-2.71-7.52-6.428-8.628a1.5 1.5 0 0 1-1.01-1.865zM12 8.25A3.75 3.75 0 0 0 8.25 12c0 2.997-1.1 5.74-2.917 7.843a1.5 1.5 0 1 1-2.27-1.962A8.96 8.96 0 0 0 5.25 12a6.75 6.75 0 1 1 13.5 0c0 4.096-1.096 7.94-3.011 11.251a1.5 1.5 0 1 1-2.597-1.502A19.404 19.404 0 0 0 15.75 12 3.75 3.75 0 0 0 12 8.25zm0 2.25a1.5 1.5 0 0 1 1.5 1.5c0 4.03-1.384 7.742-3.702 10.68a1.5 1.5 0 1 1-2.355-1.86A14.183 14.183 0 0 0 10.5 12a1.5 1.5 0 0 1 1.5-1.5z"/></svg>
